!!!OTL: ES GIENG EINMAL BEI MONDENSCHEIN
!!!ARE: Europa, Mitteleuropa, Deutschland, Hessen, Lahn; Wetterau; Elsass
!!!SCT: E1469
!!!YEM: Copyright 1995, estate of Helmut Schaffrath.
**kern
*ICvox
*Ivox
*M6/8
*k[]
*C:
{8e
=1
4e
8c
4c
8a
=2
4a
8g
4g}
{8e
=3
4g
8f
4d
8g
=4
4.c
4r}
{8e
=5
4e
8c
4c
8a
=6
4a
8g
4g}
{8e
=7
4g
8f
4d
8g
=8
4.c
4r}
{8e
=9
4d
8d
8d
8e
8f#
=10
4g
8b
4b}
{8b
=11
4a
8b
4cc
8f#
=12
4.g
4r}
{8e
=13
4e
8c
4c
8a
=14
4a
8g
4g}
{8e
=15
4g
8f
4d
8g
=16
4.c
4r}
==
!!!AGN: Staende -, Jaeger - Lied, Tod
!!!ONB: ESAC (Essen Associative Code) Database: ERK3
!!!AMT: compound duple
!!!AIN: vox
!!!EED: Helmut Schaffrath
!!!EEV: 1.0
*-
